public/assets/icons/home.svg

<svg width="20" height="20" viewBox="0 0 20 20" fill="none" xmlns="http://www.w3.org/2000/svg">
<path d="M7.61248 17.3112V14.7631C7.61248 14.1126 8.14364 13.5853 8.79886 13.5853H11.194C11.5087 13.5853 11.8104 13.7094 12.0329 13.9303C12.2554 14.1512 12.3804 14.4507 12.3804 14.7631V17.3112C12.3784 17.5816 12.4852 17.8416 12.6771 18.0336C12.8691 18.2255 13.1302 18.3334 13.4026 18.3334H15.0367C15.7999 18.3354 16.5325 18.0358 17.0728 17.5008C17.6132 16.9657 17.9168 16.2392 17.9168 15.4816V8.22246C17.9168 7.61047 17.6436 7.02995 17.1707 6.63731L11.6118 2.22997C10.6449 1.45722 9.25942 1.48217 8.32132 2.28923L2.88934 6.63731C2.39411 7.01838 2.09812 7.60061 2.0835 8.22246V15.4742C2.0835 17.0533 3.37298 18.3334 4.96364 18.3334H6.5604C7.12618 18.3334 7.58599 17.8803 7.59009 17.3186L7.61248 17.3112Z" fill="#7986AC"/>
</svg>

<?xml version="1.0"?>
<svg width="20" height="20" xmlns="http://www.w3.org/2000/svg" xmlns:svg="http://www.w3.org/2000/svg">
 <g class="layer">
  <title>Layer 1</title>
  <path d="m7.61,17.31l0,-2.55c0,-0.65 0.53,-1.17 1.19,-1.17l2.39,0c0.32,0 0.62,0.12 0.84,0.34c0.23,0.22 0.35,0.52 0.35,0.83l0,2.55c0,0.27 0.11,0.53 0.3,0.72c0.19,0.2 0.45,0.3 0.72,0.3l1.64,0c0.76,0.01 1.49,-0.29 2.03,-0.83c0.54,-0.53 0.85,-1.26 0.85,-2.02l0,-7.26c0,-0.61 -0.28,-1.19 -0.75,-1.58l-5.56,-4.41c-0.97,-0.77 -2.35,-0.75 -3.29,0.06l-5.43,4.35l-0.81,1.58l0,7.25c0,1.58 1.29,2.86 2.88,2.86l1.6,0c0.57,0 1.03,-0.45 1.03,-1.01l0.02,-0.01z" fill="#000000" id="svg_1"/>
 </g>
</svg>
